icons/trunk_dark.svg

<!--
  - The MIT License (MIT)
  -
  - Copyright (c) 2015-2024 Elior "Mallowigi" Boukhobza
  -
  - Permission is hereby granted, free of charge, to any person obtaining a copy
  - of this software and associated documentation files (the "Software"), to deal
  - in the Software without restriction, including without limitation the rights
  - to use, copy, modify, merge, publish, distribute, sublicense, and/or sell
  - copies of the Software, and to permit persons to whom the Software is
  - furnished to do so, subject to the following conditions:
  -
  - The above copyright notice and this permission notice shall be included in all
  - copies or substantial portions of the Software.
  -
  - THE SOFTWARE IS PROVIDED "AS IS", WITHOUT WARRANTY OF ANY KIND, EXPRESS OR
  - IMPLIED, INCLUDING BUT NOT LIMITED TO THE WARRANTIES OF MERCHANTABILITY,
  - FITNESS FOR A PARTICULAR PURPOSE AND NONINFRINGEMENT. IN NO EVENT SHALL THE
  - AUTHORS OR COPYRIGHT HOLDERS BE LIABLE FOR ANY CLAIM, DAMAGES OR OTHER
  - LIABILITY, WHETHER IN AN ACTION OF CONTRACT, TORT OR OTHERWISE, ARISING FROM,
  - OUT OF OR IN CONNECTION WITH THE SOFTWARE OR THE USE OR OTHER DEALINGS IN THE
  - SOFTWARE.
  -
  -->

<svg width="16px" height="16px" viewBox="0 0 53 53" xmlns="http://www.w3.org/2000/svg">
  <g fill="#FAFAFA" data-iconColor="Trunk Dark">
    <path
        d="M26.2239 53V47.2593C37.541 47.2593 46.7481 37.9859 46.7481 26.5873C46.7481 15.1885 37.541 5.9152 26.2239 5.9152C14.9067 5.9152 5.69969 15.1885 5.69969 26.5873H0C0 12.023 11.7643 0.17395 26.2239 0.17395C40.6839 0.17395 52.4483 12.023 52.4483 26.5873C52.4483 41.151 40.684 53 26.2239 53H26.2239Z"
    />
    <path
        d="M13.4892 27.003H7.78906C7.78906 16.6046 16.0582 8.14465 26.2218 8.14465V13.9763C19.2011 13.9763 13.4892 19.8199 13.4892 27.003Z"
    />
    <path
        d="M36.8611 27.0033H31.1615C31.1615 24.2154 28.9447 21.9475 26.2196 21.9475C23.495 21.9475 21.2783 24.2154 21.2783 27.0033H15.5781C15.5781 21 20.3521 16.1163 26.2196 16.1163C32.0871 16.1163 36.8611 21 36.8611 27.0033Z"
    />
  </g>
</svg>

<svg xmlns="http://www.w3.org/2000/svg" viewBox="0 0 53 53"><g fill="#fafafa" data-iconColor="Trunk Dark"><path d="M26.224 53v-5.74c11.317 0 20.524-9.274 20.524-20.673S37.541 5.915 26.224 5.915 5.7 15.188 5.7 26.587H0C0 12.023 11.764.174 26.224.174s26.224 11.849 26.224 26.413S40.684 53 26.224 53"/><path d="M13.49 27.003h-5.7c0-10.398 8.268-18.858 18.432-18.858v5.831c-7.02 0-12.733 5.844-12.733 13.027"/><path d="M36.861 27.003h-5.7c0-2.788-2.216-5.055-4.941-5.055s-4.942 2.267-4.942 5.055h-5.7c0-6.003 4.774-10.887 10.642-10.887S36.86 21 36.86 27.003"/></g></svg>
